X:0082
M:2/4
L:1/8
Q:1/4=104
K:G
gfgf|gdBd|efgf|e2d2|gdBg|ecAc|BdDF|G2G2:|

